X: 1
T: The Furze In Bloom
R: jig
M: 6/8
L: 1/8
K: Edor
|: edB BAB | def eff | edB BAF | AFD Eff |
edB BAB | gfe eff | edB BAF |1 AFD Eff :|2 AFD E3 ||
|: e3 eff | edB d2A | ded dAa | b2a faa |
e3 eff | edB d3 | edB BAF |1 AFD E2d :|2 AFD E3 ||

